!! 00000] TT[00
!! NN
!!!OTL: San hua
!!!ARE: Asia, China, Hebei, Zhangjiakou, near  Shanxi
!! Ethnic Group: Han
!! IV, 63
!!!SCT: C0376
!!!YEM: Copyright 1995, estate of Helmut Schaffrath.
**kern
*ICvox
*Ivox
*M2/4
*k[b-]
*F:
{8.cc
16dd
4ff
=1
8ee
8dd
4cc
=2
8ff
16ee
16dd
16cc
16dd
16cc
16a
=3
8g
16a
16cc
4g}
=4
{8.cc
16dd
4ff
=5
16ee
16gg
16ee
16dd
4cc
=6
8ff
16ee
16dd
16cc
16dd
16cc
16a
=7
8g
16a
16cc
4g}
=8
{16cc
8cc
16a
4cc
=9
16f
16g
16a
16cc
4g}
=10
{16cc
8cc
16a
4cc
=11
16f
16g
16a
16cc
16g
16g
16g
16g
=12
2f}
=13
{8.cc
16ff
8dd
8cc
=14
8a
8a
8a
8a}
=15
{8.g
16a
4cc
=16
16a
16cc
16a
16g
4f
=17
8cc
16cc
16a
16g
16a
16g
16d
=18
2c}
=19
{8f
8f
8d
8c
=20
8f
8f
8d
8c}
=21
{8.g
16a
4cc
=22
16a
16cc
16a
16g
4f
=23
8cc
16cc
16a
16g
16a
16g
16d
=24
2c}
=25
{8.d
16f
8.d
16f
=26
8g
8d
4c}
=27
{8.d
16f
8.d
16f
=28
8g
8d
4cc}
=29
{8g
8cc
16a
16cc
16a
16g
=30
4f
8f
8d
=31
8cc
16cc
16a
16g
16a
16g
16d
=32
2c}
==
!!!AGN: Xiaodiao. Siji huahui
!! typisch fuer Nordchina
!!    Vereinzelt Verzierungen, Glissandi.
!!!ONB: ESAC (Essen Associative Code) Database: CHINA
!!!AMT: simple duple
!!!AIN: vox
!!!EED: Helmut Schaffrath
!!!EEV: 1.0
*-
